www/assets/icons/electric_scooter.svg

<svg width="24" height="24" viewBox="0 0 24 24" xmlns="http://www.w3.org/2000/svg" fill='currentColor'><path d="M7.82109 16H15.0011V15C15.0011 12.79 16.7911 11 19.0011 11H19.7411L17.8411 2.56C17.6311 1.65 16.8211 1 15.8911 1H12.0011V3H15.8911L17.2911 9.25H17.2811C15.1211 9.9 13.4711 11.73 13.0911 14H7.82109C7.34109 12.66 5.96109 11.76 4.40109 12.06C3.22109 12.29 2.27109 13.26 2.05109 14.44C1.70109 16.34 3.16109 18 5.00109 18C6.3011 18 7.40109 17.16 7.82109 16ZM5.00109 16C4.45109 16 4.00109 15.55 4.00109 15C4.00109 14.45 4.45109 14 5.00109 14C5.55109 14 6.00109 14.45 6.00109 15C6.00109 15.55 5.55109 16 5.00109 16Z"/><path d="M19.0011 12C17.3411 12 16.0011 13.34 16.0011 15C16.0011 16.66 17.3411 18 19.0011 18C20.6611 18 22.0011 16.66 22.0011 15C22.0011 13.34 20.6611 12 19.0011 12ZM19.0011 16C18.4511 16 18.0011 15.55 18.0011 15C18.0011 14.45 18.4511 14 19.0011 14C19.5511 14 20.0011 14.45 20.0011 15C20.0011 15.55 19.5511 16 19.0011 16Z"/><path d="M11.0011 20H7.00109L13.0011 23V21H17.0011L11.0011 18V20Z"/></svg>

<svg xmlns="http://www.w3.org/2000/svg" width="24" height="24" viewBox="0 0 24 24" fill='currentColor'><path d="M7.821 16h7.18v-1c0-2.21 1.79-4 4-4h.74l-1.9-8.44A2.01 2.01 0 0 0 15.891 1h-3.89v2h3.89l1.4 6.25h-.01a6.01 6.01 0 0 0-4.19 4.75h-5.27a2.996 2.996 0 0 0-3.42-1.94c-1.18.23-2.13 1.2-2.35 2.38A3.002 3.002 0 0 0 5.001 18c1.3 0 2.4-.84 2.82-2m-2.82 0c-.55 0-1-.45-1-1s.45-1 1-1 1 .45 1 1-.45 1-1 1"/><path d="M19.001 12c-1.66 0-3 1.34-3 3s1.34 3 3 3 3-1.34 3-3-1.34-3-3-3m0 4c-.55 0-1-.45-1-1s.45-1 1-1 1 .45 1 1-.45 1-1 1m-8 4h-4l6 3v-2h4l-6-3z"/></svg>
